svg/qrcode.svg

<svg xmlns="http://www.w3.org/2000/svg" width="24" height="24" viewBox="0 0 24 24"><path d="M3 11h2v2H3v-2m8-6h2v4h-2V5m-2 6h4v4h-2v-2H9v-2m6 0h2v2h2v-2h2v2h-2v2h2v4h-2v2h-2v-2h-4v2h-2v-4h4v-2h2v-2h-2v-2m4 8v-4h-2v4h2M15 3h6v6h-6V3m2 2v2h2V5h-2M3 3h6v6H3V3m2 2v2h2V5H5M3 15h6v6H3v-6m2 2v2h2v-2z"/><path fill="none" d="M0 0h24v24H0z"/></svg>

<svg xmlns="http://www.w3.org/2000/svg" width="24" height="24" viewBox="0 0 24 24">
  <path d="M3,11H5v2H3V11m8-6h2V9H11V5M9,11h4v4H11V13H9V11m6,0h2v2h2V11h2v2H19v2h2v4H19v2H17V19H13v2H11V17h4V15h2V13H15V11m4,8V15H17v4h2M15,3h6V9H15V3m2,2V7h2V5H17M3,3H9V9H3V3M5,5V7H7V5H5M3,15H9v6H3V15m2,2v2H7V17Z"/>
  <rect width="24" height="24" fill="none"/>
</svg>
